!!!OTL: Madaoge
!!!ARE: Asia, China,ÿJiangxi Anfu
!! IV, 226
!!!SCT: C1862
!!!YEM: Copyright 1995, estate of Helmut Schaffrath.
**kern
*ICvox
*Ivox
*M2/4
*k[f#]
*G:
{8g
4g
8a
=1
8dd
16ee
16dd
4b
=2
8b
16a
16b
8dd
16b
16a
=3
2g}
=4
{8b
8a
8b
16b
16a
=5
8g
8a
4g
=6
8a
16g
16e
8d
8g
=7
8e
4e
8d}
=8
{8g
4g
8a
=9
8dd
16ee
16dd
4b
=10
8b
16a
16b
8dd
16b
16a
=11
2g}
=12
{8b
8a
8b
16b
16a
=13
8g
8a
4g
=14
8a
16g
16e
8d
8g
=15
8e
4e
8d}
=16
{8a
16g
16e
8d
8e
=17
8g
16a
16b
4g}
=18
{8d
8e
8g
8a
=19
8e
8g
4d}
=20
{8b
16b
16dd
8a
8b
=21
8dd
8ee
8b
8g
=22
4.a
16b
16dd
=23
4a
4r}
==
!!!AGN: Xiaodiao
!!!AMT: simple duple
!!!AIN: vox
!!!EED: Helmut Schaffrath
!!!EEV: 1.0
*-
